X: 9
T: The Rakes Of Kildare
R: jig
M: 6/8
L: 1/8
K: Gmaj
D |: DGG GFG | ABc d2e | =fed dcA | AGE E2D |
DGG GFG | ABc d2e | =fed cA^F |1 G3 GFE :|2 G3 G2 |
g |: gdg gdg | gdg _bag | =fdd d2c | d2c _BAG |
gdg gdg | gfg _bag | =fdd cA^F | G3 G2 :|


Tune 84	Setting 84

